dist/svg/object-based/world_32.svg

<svg xmlns="http://www.w3.org/2000/svg" viewBox="0 0 32 32"><path d="M6.572 18.925C8.622 20.975 11.31 22 13.997 22c2.53 0 5.055-.922 7.054-2.74l.02.018.706-.707-.018-.018c3.748-4.12 3.645-10.497-.336-14.477C19.372 2.025 16.684 1 13.997 1c-2.53 0-5.055.922-7.054 2.74l-.018-.018-.707.707.018.018c-3.748 4.12-3.645 10.496.336 14.477zM13.997 3c2.27 0 4.405.885 6.01 2.49 3.195 3.194 3.3 8.315.336 11.648L8.357 5.152C9.914 3.767 11.893 3 13.997 3zm5.64 14.848C18.08 19.233 16.1 20 13.996 20c-2.27 0-4.405-.885-6.01-2.49-3.195-3.193-3.3-8.314-.336-11.648l11.986 11.986z"/><path d="M24.25 1.247L22.836 2.66c2.36 2.36 3.66 5.5 3.66 8.84s-1.3 6.48-3.66 8.84c-2.36 2.36-5.5 3.66-8.84 3.66S7.52 22.7 5.16 20.34l-1.414 1.413C6.48 24.493 10.124 26 13.997 26s7.516-1.508 10.253-4.247c2.738-2.738 4.247-6.38 4.247-10.253s-1.51-7.515-4.247-10.253zM8.997 28h10v3h-10z"/></svg>

<?xml version="1.0" encoding="iso-8859-1"?>
<!-- Generator: Adobe Illustrator 20.0.0, SVG Export Plug-In . SVG Version: 6.00 Build 0)  -->
<svg version="1.1" id="Layer_1" xmlns="http://www.w3.org/2000/svg" xmlns:xlink="http://www.w3.org/1999/xlink" x="0px" y="0px"
	 viewBox="0 0 32 32" style="enable-background:new 0 0 32 32;" xml:space="preserve">
<g>
	<path d="M6.572,18.925C8.622,20.975,11.309,22,13.997,22c2.531,0,5.055-0.922,7.054-2.74l0.018,0.018l0.707-0.707l-0.018-0.019
		c3.748-4.119,3.645-10.497-0.336-14.477C19.372,2.025,16.684,1,13.997,1c-2.531,0-5.055,0.922-7.054,2.74L6.925,3.722L6.218,4.429
		l0.018,0.019C2.488,8.567,2.591,14.944,6.572,18.925z M13.997,3c2.271,0,4.405,0.885,6.011,2.489
		c3.194,3.195,3.3,8.316,0.335,11.649L8.357,5.152C9.914,3.767,11.893,3,13.997,3z M19.636,17.848C18.08,19.233,16.1,20,13.997,20
		c-2.271,0-4.405-0.885-6.011-2.489c-3.194-3.194-3.3-8.315-0.335-11.649L19.636,17.848z"/>
	<path d="M24.25,1.247l-1.414,1.414c2.361,2.36,3.661,5.499,3.661,8.839s-1.3,6.479-3.661,8.839C20.475,22.699,17.336,24,13.997,24
		s-6.478-1.301-8.839-3.661l-1.414,1.414C6.481,24.492,10.123,26,13.997,26s7.516-1.508,10.253-4.247
		c2.738-2.738,4.247-6.38,4.247-10.253S26.988,3.985,24.25,1.247z"/>
	<rect x="8.997" y="28" width="10" height="3"/>
</g>
</svg>
